public/assets/svgs/addons/ember-x-editable.svg

<svg height="58" viewBox="0 0 58 58" width="58" xmlns="http://www.w3.org/2000/svg"><g fill="none" fill-rule="evenodd"><path d="m0 0h58v58h-58z" fill="#ecf0f1"/><path d="m0 0h58v12h-58z" fill="#546a79"/><path d="m9 6c0 1.657-1.343 3-3 3s-3-1.343-3-3 1.343-3 3-3 3 1.343 3 3" fill="#ed7161"/><path d="m18 6c0 1.657-1.343 3-3 3s-3-1.343-3-3 1.343-3 3-3 3 1.343 3 3" fill="#f0c419"/><path d="m27 6c0 1.657-1.343 3-3 3s-3-1.343-3-3 1.343-3 3-3 3 1.343 3 3" fill="#4fba6f"/><g fill="#8697cb"><path d="m46 20h5c.552 0 1-.447 1-1s-.448-1-1-1h-5c-.552 0-1 .447-1 1s.448 1 1 1"/><path d="m51 21h-5c-.552 0-1 .447-1 1s.448 1 1 1h5c.552 0 1-.447 1-1s-.448-1-1-1"/><path d="m51 24h-5c-.552 0-1 .447-1 1s.448 1 1 1h5c.552 0 1-.447 1-1s-.448-1-1-1"/></g><g fill="#bdc3c7"><path d="m7 36h21c.552 0 1-.447 1-1s-.448-1-1-1h-21c-.552 0-1 .447-1 1s.448 1 1 1"/><path d="m32 36h9c.552 0 1-.447 1-1s-.448-1-1-1h-9c-.552 0-1 .447-1 1s.448 1 1 1"/><path d="m45 36h6c.552 0 1-.447 1-1s-.448-1-1-1h-6c-.552 0-1 .447-1 1s.448 1 1 1"/><path d="m51 39h-21c-.552 0-1 .447-1 1s.448 1 1 1h21c.552 0 1-.447 1-1s-.448-1-1-1"/><path d="m17 39c-.552 0-1 .447-1 1s.448 1 1 1h9c.552 0 1-.447 1-1s-.448-1-1-1z"/><path d="m7 41h6c.552 0 1-.447 1-1s-.448-1-1-1h-6c-.552 0-1 .447-1 1s.448 1 1 1"/><path d="m28 44h-21c-.552 0-1 .447-1 1s.448 1 1 1h21c.552 0 1-.447 1-1s-.448-1-1-1"/><path d="m41 46c.552 0 1-.447 1-1s-.448-1-1-1h-9c-.552 0-1 .447-1 1s.448 1 1 1z"/><path d="m51 44h-6c-.552 0-1 .447-1 1s.448 1 1 1h6c.552 0 1-.447 1-1s-.448-1-1-1"/><path d="m51 49h-21c-.552 0-1 .447-1 1s.448 1 1 1h21c.552 0 1-.447 1-1s-.448-1-1-1"/><path d="m26 49h-9c-.552 0-1 .447-1 1s.448 1 1 1h9c.552 0 1-.447 1-1s-.448-1-1-1"/><path d="m13 49h-6c-.552 0-1 .447-1 1s.448 1 1 1h6c.552 0 1-.447 1-1s-.448-1-1-1"/></g><path d="m11 26c-2.209 0-4-1.791-4-4s1.791-4 4-4 4 1.791 4 4-1.791 4-4 4" fill="#cbb292"/></g></svg>

<?xml version="1.0" encoding="UTF-8" standalone="no"?>
<svg width="58px" height="58px" viewBox="0 0 58 58" version="1.1" xmlns="http://www.w3.org/2000/svg" xmlns:xlink="http://www.w3.org/1999/xlink">
    <!-- Generator: Sketch 40.1 (33804) - http://www.bohemiancoding.com/sketch -->
    <title>60 - Hamburger Menu (user, interface, communication, flat)</title>
    <desc>Created with Sketch.</desc>
    <defs></defs>
    <g id="Page-1" stroke="none" stroke-width="1" fill="none" fill-rule="evenodd">
        <g id="Icons" transform="translate(-121.000000, -838.000000)">
            <g id="Hamburger-Menu" transform="translate(121.000000, 838.000000)">
                <polygon id="Fill-124" fill="#ECF0F1" points="0 0 58 0 58 58 0 58"></polygon>
                <polygon id="Fill-125" fill="#546A79" points="0 0 58 0 58 12 0 12"></polygon>
                <path d="M9,6 C9,7.657 7.657,9 6,9 C4.343,9 3,7.657 3,6 C3,4.343 4.343,3 6,3 C7.657,3 9,4.343 9,6" id="Fill-126" fill="#ED7161"></path>
                <path d="M18,6 C18,7.657 16.657,9 15,9 C13.343,9 12,7.657 12,6 C12,4.343 13.343,3 15,3 C16.657,3 18,4.343 18,6" id="Fill-127" fill="#F0C419"></path>
                <path d="M27,6 C27,7.657 25.657,9 24,9 C22.343,9 21,7.657 21,6 C21,4.343 22.343,3 24,3 C25.657,3 27,4.343 27,6" id="Fill-128" fill="#4FBA6F"></path>
                <path d="M46,20 L51,20 C51.552,20 52,19.553 52,19 C52,18.447 51.552,18 51,18 L46,18 C45.448,18 45,18.447 45,19 C45,19.553 45.448,20 46,20" id="Fill-282" fill="#8697CB"></path>
                <path d="M51,21 L46,21 C45.448,21 45,21.447 45,22 C45,22.553 45.448,23 46,23 L51,23 C51.552,23 52,22.553 52,22 C52,21.447 51.552,21 51,21" id="Fill-283" fill="#8697CB"></path>
                <path d="M51,24 L46,24 C45.448,24 45,24.447 45,25 C45,25.553 45.448,26 46,26 L51,26 C51.552,26 52,25.553 52,25 C52,24.447 51.552,24 51,24" id="Fill-284" fill="#8697CB"></path>
                <path d="M7,36 L28,36 C28.552,36 29,35.553 29,35 C29,34.447 28.552,34 28,34 L7,34 C6.448,34 6,34.447 6,35 C6,35.553 6.448,36 7,36" id="Fill-285" fill="#BDC3C7"></path>
                <path d="M32,36 L41,36 C41.552,36 42,35.553 42,35 C42,34.447 41.552,34 41,34 L32,34 C31.448,34 31,34.447 31,35 C31,35.553 31.448,36 32,36" id="Fill-286" fill="#BDC3C7"></path>
                <path d="M45,36 L51,36 C51.552,36 52,35.553 52,35 C52,34.447 51.552,34 51,34 L45,34 C44.448,34 44,34.447 44,35 C44,35.553 44.448,36 45,36" id="Fill-287" fill="#BDC3C7"></path>
                <path d="M51,39 L30,39 C29.448,39 29,39.447 29,40 C29,40.553 29.448,41 30,41 L51,41 C51.552,41 52,40.553 52,40 C52,39.447 51.552,39 51,39" id="Fill-288" fill="#BDC3C7"></path>
                <path d="M17,39 C16.448,39 16,39.447 16,40 C16,40.553 16.448,41 17,41 L26,41 C26.552,41 27,40.553 27,40 C27,39.447 26.552,39 26,39 L17,39" id="Fill-289" fill="#BDC3C7"></path>
                <path d="M7,41 L13,41 C13.552,41 14,40.553 14,40 C14,39.447 13.552,39 13,39 L7,39 C6.448,39 6,39.447 6,40 C6,40.553 6.448,41 7,41" id="Fill-290" fill="#BDC3C7"></path>
                <path d="M28,44 L7,44 C6.448,44 6,44.447 6,45 C6,45.553 6.448,46 7,46 L28,46 C28.552,46 29,45.553 29,45 C29,44.447 28.552,44 28,44" id="Fill-291" fill="#BDC3C7"></path>
                <path d="M41,46 C41.552,46 42,45.553 42,45 C42,44.447 41.552,44 41,44 L32,44 C31.448,44 31,44.447 31,45 C31,45.553 31.448,46 32,46 L41,46" id="Fill-292" fill="#BDC3C7"></path>
                <path d="M51,44 L45,44 C44.448,44 44,44.447 44,45 C44,45.553 44.448,46 45,46 L51,46 C51.552,46 52,45.553 52,45 C52,44.447 51.552,44 51,44" id="Fill-293" fill="#BDC3C7"></path>
                <path d="M51,49 L30,49 C29.448,49 29,49.447 29,50 C29,50.553 29.448,51 30,51 L51,51 C51.552,51 52,50.553 52,50 C52,49.447 51.552,49 51,49" id="Fill-294" fill="#BDC3C7"></path>
                <path d="M26,49 L17,49 C16.448,49 16,49.447 16,50 C16,50.553 16.448,51 17,51 L26,51 C26.552,51 27,50.553 27,50 C27,49.447 26.552,49 26,49" id="Fill-295" fill="#BDC3C7"></path>
                <path d="M13,49 L7,49 C6.448,49 6,49.447 6,50 C6,50.553 6.448,51 7,51 L13,51 C13.552,51 14,50.553 14,50 C14,49.447 13.552,49 13,49" id="Fill-296" fill="#BDC3C7"></path>
                <path d="M11,26 L11,26 C8.791,26 7,24.209 7,22 C7,19.791 8.791,18 11,18 C13.209,18 15,19.791 15,22 C15,24.209 13.209,26 11,26" id="Fill-943" fill="#CBB292"></path>
            </g>
        </g>
    </g>
</svg>
